packages/rn-bitcoin-icons/svg/filled/transfer.svg

<svg width="24" height="24" viewBox="0 0 24 24" fill="none" xmlns="http://www.w3.org/2000/svg">
<path fill-rule="evenodd" clip-rule="evenodd" d="M4 15.2433C4.41421 15.2433 4.75 15.5791 4.75 15.9933V19C4.75 19.1381 4.86193 19.25 5 19.25H19C19.1381 19.25 19.25 19.1381 19.25 19V15.9933C19.25 15.5791 19.5858 15.2433 20 15.2433C20.4142 15.2433 20.75 15.5791 20.75 15.9933V19C20.75 19.9665 19.9665 20.75 19 20.75H5C4.0335 20.75 3.25 19.9665 3.25 19V15.9933C3.25 15.5791 3.58579 15.2433 4 15.2433Z" fill="black"/>
<path fill-rule="evenodd" clip-rule="evenodd" d="M19.8697 10.8932C20.1696 11.1789 20.1811 11.6536 19.8953 11.9535L16.8477 15.1517C16.7061 15.3003 16.5099 15.3843 16.3047 15.3843C16.0995 15.3843 15.9033 15.3003 15.7618 15.1517L12.7142 11.9535C12.4284 11.6536 12.4399 11.1789 12.7397 10.8932C13.0396 10.6074 13.5143 10.6189 13.8001 10.9187L16.3047 13.5471L18.8094 10.9187C19.0951 10.6189 19.5699 10.6074 19.8697 10.8932Z" fill="black"/>
<path fill-rule="evenodd" clip-rule="evenodd" d="M11.3524 4.75C9.03146 4.75 7.14999 6.63147 7.14999 8.95238V13.9582C7.14999 14.3724 6.81421 14.7082 6.39999 14.7082C5.98578 14.7082 5.64999 14.3724 5.64999 13.9582V8.95238C5.64999 5.80305 8.20304 3.25 11.3524 3.25C14.5017 3.25 17.0548 5.80304 17.0548 8.95238V13.9582C17.0548 14.3724 16.719 14.7082 16.3048 14.7082C15.8905 14.7082 15.5548 14.3724 15.5548 13.9582V8.95238C15.5548 6.63147 13.6733 4.75 11.3524 4.75Z" fill="black"/>
</svg>

<svg xmlns="http://www.w3.org/2000/svg" viewBox="0 0 24 24" fill="currentColor">
  <path fill-rule="evenodd" d="M4 15.243a.75.75 0 01.75.75V19c0 .138.112.25.25.25h14a.25.25 0 00.25-.25v-3.007a.75.75 0 011.5 0V19A1.75 1.75 0 0119 20.75H5A1.75 1.75 0 013.25 19v-3.007a.75.75 0 01.75-.75z" clip-rule="evenodd"/>
  <path fill-rule="evenodd" d="M19.87 10.893c.3.286.311.76.025 1.06l-3.047 3.199a.75.75 0 01-1.086 0l-3.048-3.198a.75.75 0 111.086-1.035l2.505 2.628 2.504-2.628a.75.75 0 011.06-.026z" clip-rule="evenodd"/>
  <path fill-rule="evenodd" d="M11.352 4.75A4.202 4.202 0 007.15 8.952v5.006a.75.75 0 01-1.5 0V8.952a5.702 5.702 0 0111.405 0v5.006a.75.75 0 01-1.5 0V8.952a4.202 4.202 0 00-4.203-4.202z" clip-rule="evenodd"/>
</svg>
